X:1
T:Veni Sancte Spiritus, 77.77.77
T:Samuel Webbe, Sr., 1782
T:Veni Sancte Spiritus, 77.77.77
T:Public Domain
C:Samuel Webbe, Sr., 1782
Z:Public Domain
%%score ( 1 2 ) ( 3 4 )
L:1/8
M:4/4
K:E
V:1 treble 
V:2 treble 
V:3 bass 
V:4 bass 
V:1
 [B,E]2 [CE]2 [B,E]2 [DF]2 | E2 z F [B,E]4 | [B,F]2 [EG]2 [DF]2 [DB]2 | [FB]2 [F^A]2 [DB]4 | %4
 [Ec]2 [EB]2 (CD) [EG]2 | E2 z E E4 | [CE]2 [EA]2 [=DG]2 [CA]2 | c2 z =D [CA]4 | %8
 [B,G]2 [DB]2 [EA]2 [EG]2 | C2 z E [B,D]4 | [DF]2 (EF) [EG]2 [CF]2 | [B,E]2 [B,D]2 [B,E]4 |] %12
V:2
 x8 | G3 D2 x3 | x8 | x8 | x4 A2 x2 | F3 D2 x3 | x8 | E3 B2 x3 | x8 | F3 C2 x3 | x2 A2 x4 | x8 |] %12
V:3
 [E,G,]2 A,2 [G,B,]2 [F,A,]2 | E,2 z A, [E,G,]4 | [D,B,]2 [E,B,]2 [B,,B,]2 [G,B,]2 | %3
 [F,C]2 [F,C]2 [B,,B,]4 | A,2 [E,G,]2 [F,A,]2 [E,B,]2 | [B,,B,]2 [B,,A,]2 [E,G,]4 | %6
 [A,,A,]2 [C,A,]2 [B,,B,]2 [F,A,]2 | (C,=D,) [E,G,]2 [A,,A,]4 | E,2 [B,,F,]2 [C,E,]2 [E,B,]2 | %9
 [F,B,]2 [F,,^A,]2 [B,,B,]4 | [B,,F,]2 ([C,C][D,B,]) [E,B,]2 [A,,A,]2 | %11
 [B,,G,]2 [B,,F,]2 [E,G,]4 |] %12
V:4
 x8 | B,3 B,,2 x3 | x8 | x8 | x8 | x8 | x8 | A,2 x6 | x8 | x8 | x8 | x8 |] %12

